!!!!SEGMENT: pl-wnifc--6639-n--002_gall-jan-karol--piosneczka-z-ogrodka-op-10-ii.krn
!!!cenid: 18xx:4009
!!!COM: Gall, Jan Karol
!!!COM-rismID: pe50042628
!!!CDT: 1856-1912
!!!CNT: Polish
!!!GTL: Piosneczka z ogródka op. 10
!!!OTL: II.
!!!OMV: 002
!!!PDT: 1888
!!!AGN:
!!!SMS-siglum: PL-Wnifc
!!!SMS-shelfmark: 6639/n
!!!SMS-shelfwork: G
!!!SMS-variant:
!!!SMS-altvar:
!!!NIFC-rismSourceID: 1001149310
!!!NIFC-rismChildID: 1001149314
!!!NIFC-islandoraID: nifc:212943
!!!URL-pdf-islandora: https://repozytorium.nifc.pl/islandora/object/nifc%3A212943/datastream/PDF/view
!!!URL-scan:
!!!ONB-nifc: UWAGA: str. 6-7
!!!AIN: 2 piano 1 vox
!!!key: f
**kern	**kern	**dynam	**kern	**text	**dynam
*part3	*part2	*part2	*part1	*part1	*part1
*staff3	*staff2	*	*staff1	*staff1	*
*I"Fortepian.	*I"Fortepian.	*	*I"Głos.	*	*
*I'pf	*I'pf	*	*I'V	*	*
*ICklav	*ICklav	*	*ICvox	*	*
*Ipiano	*Ipiano	*	*Ivox	*	*
*clefF4	*clefG2	*	*clefG2	*	*
*k[b-e-a-d-]	*k[b-e-a-d-]	*	*k[b-e-a-d-]	*	*
*f:	*f:	*	*f:	*	*
*M2/4	*M2/4	*	*M2/4	*	*
=1	=1	=1	=1	=1	=1
*^	*	*	*	*	*
!	!	!	!	!LO:TX:B:a:t=Poco piu mosso.	!	!
8r	2FF\	2r	pp	2r	.	.
4C/	.	.	.	.	.	.
8C/	.	.	.	.	.	.
=2	=2	=2	=2	=2	=2	=2
8r	2FF\	2r	.	2r	.	.
4C/	.	.	.	.	.	.
8C/	.	.	.	.	.	.
=3	=3	=3	=3	=3	=3	=3
8r	2FF\	16r	.	2r	.	.
.	.	(16F/LL	.	.	.	.
4C/	.	16G/)	.	.	.	.
.	.	16B-'/JJ	.	.	.	.
.	.	16A-'/LL	.	.	.	.
.	.	16F'/	.	.	.	.
8C/	.	16A-'/	.	.	.	.
.	.	16d-'/JJ	.	.	.	.
=4	=4	=4	=4	=4	=4	=4
8r	2FF\	8c'/L	.	2r	.	.
4C/	.	(16F/L 16A-	.	.	.	.
.	.	16G/JJ 16B-	.	.	.	.
.	.	8A-/) 8c	.	.	.	.
8C/	.	8r	.	.	.	.
!!LO:LB:g=original	!	!	!	!	!	!
=5	=5	=5	=5	=5	=5	=5
8r	2EE-\	16r	.	2r	.	.
.	.	(16f/LL	<	.	.	.
4C/	.	16g/)	.	.	.	.
.	.	16b-'/JJ	.	.	.	.
.	.	16a-'/LL	.	.	.	.
.	.	16f'/	.	.	.	.
8C/	.	16a-'/	.	.	.	.
.	.	16dd-'/JJ	.	.	.	.
=6	=6	=6	=6	=6	=6	=6
8r	2EE-\	8cc'/L	.	2r	.	.
4C/	.	(16f/L 16a-	.	.	.	.
.	.	16g/JJ 16b-	.	.	.	.
.	.	8a-/) 8cc	.	.	.	.
8C/	.	8r	[[	.	.	.
*v	*v	*	*	*	*	*
=7	=7	=7	=7	=7	=7
8DDn/	8r	.	8r	.	.
4F\ 4A- 4c	(8cc\	.	8cc\	U-	.
.	8ff\L)	.	8ff\	-ro-	.
8F\ 8A- 8c	16a-\L	.	16a-/LL	-cza,	.
.	16b-\JJ	.	16b-/JJ	.	.
=8	=8	=8	=8	=8	=8
8EE-\L	16cc\LL	.	16cc\LL	ci-	.
.	16dd-\JJ	.	16dd-\JJ	.	.
(16E-\L 16A- 16c	4ee-\	.	4ee-\	-chut-	.
16f\JJ	.	.	.	.	.
16e-\LL	.	.	.	.	.
16c\	.	.	.	.	.
16A-\	8een\	.	8een\	-ka	.
16E-\JJ)	.	.	.	.	.
=9	=9	=9	=9	=9	=9
*^	*	*	*	*	*
8BB-\L	4ryy	8r	.	8r	.	.
8F\J 8A- 8d-	.	(16een\LL	.	16een\LL	Pios-	.
.	.	16gg\JJ	.	16gg\JJ	.	.
8r	4E-\	8ff\L)	.	8ff\	-necz-	.
8B-/	.	8g\J 8dd-	.	16dd-\	-ka	.
.	.	.	.	16dd-\	z o-	.
*v	*v	*	*	*	*	*
!!LO:LB:g=original	!	!	!	!	!
=10	=10	=10	=10	=10	=10
N(16AA-\LL	8a-\ 8cc	.	4.cc\	-gród-	.
16Dn\	.	.	.	.	.
16E-\	8r	.	.	.	.
16G\JJ	.	.	.	.	.
16A-\	16r	.	.	.	.
16r	16Bn/LL	.	.	.	.
8r	16c/	.	8e-/	-ka	.
.	16e-/JJN)	.	.	.	.
=11	=11	=11	=11	=11	=11
*^	*	*^	*	*	*
8r	4.FF\	8r	8r	.	8r	.	.
4A-/	.	8dn/	4c\	.	8dn/	Po-	.
.	.	8cc/L	.	.	8cc\	-wiew-	.
16F/LL	8Dn\	16c/L 16a-	8r	.	16a-/LL	-na	.
16A-/JJ	.	16f/JJ	.	.	16f/JJ	.	.
=12	=12	=12	=12	=12	=12	=12	=12
16G/LL	2GG\	16c/LL 16en	8r	.	16en/LL	pio-	.
16F/J	.	16an/JJ	.	.	16an/JJ	.	.
8En/J	.	4c/ 4g	4r	.	4g/	-sen-	.
8qF#X/	.	.	.	.	.	.	.
4G/	.	.	.	.	.	.	.
.	.	8c/ 8e	8r	.	8e/	-ka	.
*v	*v	*	*	*	*	*	*
*	*	*v	*v	*	*	*
=13	=13	=13	=13	=13	=13
4.GGG/	8c/L 8f 8an	.	8an/	Pu-	.
.	8F/J 8Bn 8dn	.	8g/	-ka	.
.	8An/L 8B 8f	.	8r	.	.
8GG/	N[16G/L 16B 16en	.	16g/	do	.
.	16d/JJ	.	16g/	o-	.
!!LO:LB:g=original	!	!	!	!	!
=14	=14	=14	=14	=14	=14
16CC/	16G/N] 16c 16en	.	[2cc	-kien-	.
16r	16r	.	.	.	.
(8F\ 8A-	16c/LL 16dn	.	.	.	.
.	16c/JJ 16d	.	.	.	.
!	!LO:TX:b:Bi:t=string._:dur=10s:ext=ud:problem:text with line extensions	!	!	!	!
16C\) 16G	16c/ 16e	.	.	.	.
16r	16r	.	.	.	.
*clefG2	*	*	*	*	*
(8f/ 8a-	16cc\LL 16ddn	.	.	.	.
.	16cc\JJ 16dd	.	.	.	.
=15	=15	=15	=15	=15	=15
16c/) 16g	16cc\ 16een	.	2cc_	.	.
16r	16r	.	.	.	.
(8ff\ 8aa-	16ccc\LL 16dddn	.	.	.	.
.	16ccc\JJ 16ddd	.	.	.	.
16cc\) 16gg	16ccc\ 16eeen	.	.	.	.
16r	16r	.	.	.	.
(8f/ 8a-	16cc\LL 16ddn	.	.	.	.
.	16cc\JJ 16dd	.	.	.	.
=16	=16	=16	=16	=16	=16
16c/) 16g	16cc\ 16een	.	8cc]	.	.
16r	16r	.	.	.	.
*clefF4	*	*	*	*	*
(8BBn/	8Bn/	.	8c	-ka.	.
16C/)	16c/	.	4r	.	.
16r	16r	.	.	.	.
(8BBBn\	(8BBn</	.	.	.	.
=17	=17	=17	=17	=17	=17
4.CC\)	4.C</)	.	2r;	.	.
8r;	8r;	.	.	.	.
!!LO:PB:g=original	!	!	!	!	!
=18||	=18||	=18||	=18||	=18||	=18||
*k[enandnb-]	*k[enandnb-]	*	*k[enandnb-]	*	*
*^	*	*	*	*	*
!	!	!	!	!LO:TX:a:t=Poco piu lento	!	!
8r	[4FF\	8r	.	8r	.	.
(<8C/	.	(>8A/ 8f 8a	.	8a\L	Wew-	.
8A/)	16FF\LL]	8c/) 8f 8cc	.	8cc\J	.	.
.	(>16BBn\	.	.	.	.	.
8r	16D\	8r	.	8cc\	-nątrz	.
.	16C\JJ)	.	.	.	.	.
=19	=19	=19	=19	=19	=19	=19
*	*	*^	*	*	*	*
!LO:TUP:a:problem:klamra łukowa	!	!LO:TUP:a:problem:klamra łukowa	!	!	!	!	!
12G/L	4.C\	12b-/L	4.e\	.	12b-\L	w pu-	.
12A/	.	12cc/	.	.	12cc\J	.	.
12G/J	.	12b-/J	.	.	12b-\	-chach	.
8B-/	.	8dd/L	.	.	8dd\	ło-	.
8ryy	8CC\	8B-/J 8g#X	16e\LL	.	16g#X/	-za	.
.	.	.	16d\JJ	.	16g#/	Śni	.
=20	=20	=20	=20	=20	=20	=20	=20
8r	4FF\	8A/ 8a	16c\LL	.	8a/	dziew-	.
.	.	.	16Bn\	.	.	.	.
8C/	.	8ryy	16c\	.	8c/	-czę,	.
.	.	.	16f\JJ	.	.	.	.
8r	8ryy	4ryy	16cc\LL	.	8r	.	.
.	.	.	16e\	.	.	.	.
8C/	8AA\	.	16f\	.	16cc\	dziew-	.
.	.	.	16a\JJ	.	16cc\	-czę	.
*v	*v	*	*	*	*	*	*
!!LO:LB:g=original	!	!	!	!	!	!
=21	=21	=21	=21	=21	=21	=21
4BB-/	8r	4ryy	.	16cc#X\LL	ma-	.
.	.	.	.	16ee\JJ	.	.
.	4d/ 4f 4g	.	.	4dd\	-li-	.
8C/L	.	16r	.	.	.	.
.	.	16Bn\LL	.	.	.	.
8EE/J	8e/ 8g	16dn\	.	8b-\	-na	.
.	.	16c\JJ	.	.	.	.
*	*v	*v	*	*	*	*
=22	=22	=22	=22	=22	=22
*^	*	*	*	*	*
8r	4.FF\	8r	.	8r	.	.
(<8C/	.	(>8A/ 8f 8a	.	16a/	Na	.
.	.	.	.	16a/	jej	.
16A/LL)	.	8c/) 8f 8cc	.	8cc\	szyj-	.
(<16BBn/	.	.	.	.	.	.
16D/	8ryy	8r	.	8cc\	-ce	.
16C/JJ)	.	.	.	.	.	.
*v	*v	*	*	*	*	*
=23	=23	=23	=23	=23	=23
*	*^	*	*	*	*
8DD/	8f/ 8a 8bn	8ryy	.	(8bn\	zo-	.
4D\ 4A 4Bn	4ff/	4a\	.	4ff\)	.	.
8F\ 8B	16ee/LL	8a\	.	16ee\LL	-rza	.
.	16dd/JJ	.	.	16dd\JJ	.	.
!!LO:LB:g=original	!	!	!	!	!	!
=24	=24	=24	=24	=24	=24	=24
*^	*	*	*	*	*	*
16A/LL	4E\	16cc/LL	4a\	.	16cc\LL	Pro-	.
16Bn/	.	16dd/	.	.	16dd\	.	.
16c/	.	16ee/	.	.	16ee\JJ	.	.
16A/JJ	.	16cc/JJ	.	.	16cc\	-mień	.
4ryy	8D\L	8bn/L	8f\L 8a	.	8bn\	swój	.
.	8E\J	8dd/J	8e\J 8g#X	.	8dd\	roz-	.
*v	*v	*	*	*	*	*	*
=25	=25	=25	=25	=25	=25	=25
8AA/L	8e/L 8a 8cc	4ryy	.	8cc\	-pi-	.
8FF#X/	8c/J 8e-X 8a	.	.	8a/	-na	.
8GG/	4en/ 4b-	16c\LL	.	4r	.	.
.	.	(>16Bn\	.	.	.	.
8CC/J	.	16d\	.	.	.	.
.	.	16c\JJ)	.	.	.	.
*	*v	*v	*	*	*	*
=26	=26	=26	=26	=26	=26
*^	*	*	*	*	*
8r	4FF\	8r	.	4r	.	.
(<8C/	.	(>8A/ 8f 8a	.	.	.	.
8A/)	16FF\LL	8c/) 8f 8cc	.	8r	.	.
.	(>16BBn\	.	.	.	.	.
8r	16D\	8r	.	16cc\	A	.
.	16C\JJ)	.	.	16cc\	ła-	.
!!LO:LB:g=original	!	!	!	!	!	!
=27	=27	=27	=27	=27	=27	=27
*	*	*^	*	*	*	*
!LO:TUP:a:problem:klamra łukowa	!	!LO:TUP:a:problem:klamra łukowa	!	!	!	!	!
12G/L	4.C\	12b-X/L	4.e\	.	12b-\L	-bę-	.
12A/	.	12cc/	.	.	12cc\J	.	.
12G/J	.	12b-/J	.	.	12b-\	-dzia	.
8B-/	.	8dd/L	.	.	8dd\	szyj-	.
8ryy	8CC\	8B-/J 8g#X	16e\LL	.	8g#X/	-ka	.
.	.	.	16d\JJ	.	.	.	.
=28	=28	=28	=28	=28	=28	=28	=28
8r	4FF\	8A/ 8a	16c\LL	.	8r	.	.
.	.	.	16Bn\	.	.	.	.
8C/	.	8r	16c\	.	16a/	Przy	.
.	.	.	16f\JJ	.	16a/	war-	.
8r	4ryy	16cc/LL	4ryy	.	16c/LL	-ko-	.
.	.	16e/	.	.	16cc/JJ	.	.
8AA/ 8C	.	16f/	.	.	8cc\	-czów	.
.	.	16a/JJ	.	.	.	.	.
*v	*v	*	*	*	*	*	*
=29	=29	=29	=29	=29	=29	=29
4BB-/	8cc#X\	4ryy	.	16cc#X\LL	splo-	.
.	.	.	.	16ee\JJ	.	.
.	4f/ 4g 4dd	.	.	4dd\	.	.
8C/L	.	16rc	.	.	.	.
.	.	16Bn\LL	.	.	.	.
8CC/J	8en/ 8g	16d\	.	8b-\	-cie	.
.	.	16c\JJ	.	.	.	.
*	*v	*v	*	*	*	*
!!LO:PB:g=original	!	!	!	!	!
=30	=30	=30	=30	=30	=30
*^	*	*	*	*	*
8r	4.FF\	8r	.	8r	.	.
(<8C/	.	(>8A/ 8f 8a	.	8a\L	Błysz-	.
16A/LL)	.	8c/) 8f 8cc	.	8cc\J	.	.
(<16BBn/	.	.	.	.	.	.
16D/	8rDD	8r	.	8cc\	-czy	.
16C/JJ)	.	.	.	.	.	.
=31	=31	=31	=31	=31	=31	=31
8AA-X/L	4DD\	8r	.	8r	.	.
8GG/J	.	8Bn/ 8f 8bn	.	16bn\	jak	.
.	.	.	.	16b\	li-	.
8GGG\L	4ryy	8a\L 8ff	.	8ff\	-lij-	.
8G\J 8Bn	.	16g\L 16ee	.	16ee\	-ka	.
.	.	16f\JJ 16b	.	16b\	W sło-	.
*v	*v	*	*	*	*	*
=32	=32	=32	=32	=32	=32
(16CC/LL	4f/ 4a 4dd	.	4dd\	-necz-	.
16C/	.	.	.	.	.
16F/	.	.	.	.	.
16A/JJ	.	.	.	.	.
16c\)	16cc/LL	.	8cc\	-ne	.
16r	16c/	<	.	.	.
8r	16f/	.	8a/	o-	.
.	16a/JJ	[[	.	.	.
!!LO:LB:g=original	!	!	!	!	!
=33	=33	=33	=33	=33	=33
(16CC/LL	4f#X/ 4a 4ee-X	.	4ee-X\	-zło-	.
16C/	.	.	.	.	.
16F#X/	.	.	.	.	.
16A/JJ	.	.	.	.	.
16d\)	16dd/LL	.	8dd\	-cie,	.
16r	16d/	<	.	.	.
8r	16f#/	.	8a/	W sło-	.
.	16a/JJ	[[	.	.	.
=34	=34	=34	=34	=34	=34
*	*^	*	*	*	*
8r	8cc/L	8r	>	8cc\L	-necz-	.
8GG/L	8g/ 8b-	8d\L	]	8b-\J	.	.
8AA/	8f#X/ 8a	8d\	.	8a/	-nej	.
8BB-/J	8g/J	8d\J	.	8g/	o-	.
*	*v	*v	*	*	*	*
=35	=35	=35	=35	=35	=35
!LO:TUP:a:problem:klamra łukowa	!	!	!	!	!LO:HP:a
N(24C\LL 24Fn	8r	.	[2cc\	-zło-	<[
24A\	.	.	.	.	.
24c\JJ	.	.	.	.	.
!	!LO:TUP:b:problem:klamra łukowa	!	!	!	!
8r	24fn/LL	.	.	.	.
.	24a/	.	.	.	.
.	24dd/JJN)	.	.	.	.
4r	16cc'/LL	.	.	.	.
.	16a'/	.	.	.	.
.	16f'/	.	.	.	.
.	16d'/JJ	.	.	.	.
!!LO:LB:g=original	!	!	!	!	!
=36	=36	=36	=36	=36	=36
*	*^	*	*	*	*
4r	8r	4c\	.	2cc\_	.	.
.	4f/ 4a	.	.	.	.	.
8r	.	8Bn\L 8d	.	.	.	.
8CC/	8g/ 8b-	8B-X\J	.	.	.	.
*	*v	*v	*	*	*	*
=37	=37	=37	=37	=37	=37
*^	*	*	*	*	*
8r	[4FF\	8r	.	8cc\]	.	.
(<8C/	.	(>8A/ 8f 8a	.	8f/	-cie.	.
8A/)	16FF\LL]	8c/) 8f 8cc	.	4r	.	.
.	(>16BBn\	.	.	.	.	.
8r	16D\	8r	.	.	.	.
.	16C\JJ)	.	.	.	.	.
=38	=38	=38	=38	=38	=38	=38
*	*	*^	*	*	*	*
!LO:TUP:a:problem:klamra łukowa	!	!LO:TUP:a:problem:klamra łukowa	!	!	!	!	!
12G/L	4.C\	12b-/L	4.e\	.	2r	.	.
12A/	.	12cc/	.	.	.	.	.
12G/J	.	12b-/J	.	.	.	.	.
8B-/	.	8dd/L	.	.	.	.	.
8ryy	8CC\	8B-/J 8g#X	16e\LL	.	.	.	.
.	.	.	16d\JJ	.	.	.	.
*v	*v	*	*	*	*	*	*
=39	=39	=39	=39	=39	=39	=39
(16FF\LL	8A/ 8a	8c\	.	2r	.	.
16C\	.	.	.	.	.	.
16A\	8r	8ryy	.	.	.	.
16c\JJ	.	.	.	.	.	.
*clefG2	*	*	*	*	*	*
16a/LL)	8cc/ 8ff 8ccc	4ryy	.	.	.	.
(16Bn/	.	.	.	.	.	.
16d/	8r	.	.	.	.	.
16c/JJ)	.	.	.	.	.	.
!!LO:LB:g=original	!	!	!	!	!	!
=40	=40	=40	=40	=40	=40	=40
*^	*	*	*	*	*	*
!LO:TUP:a:problem:klamra łukowa	!	!LO:TUP:a:problem:klamra łukowa	!	!	!	!	!
12g/L	4.c\	12bb-/L	4.ee\	.	2r	.	.
12a/	.	12ccc/	.	.	.	.	.
12g/J	.	12bb-/J	.	.	.	.	.
8b-/L	.	8ddd/L	.	.	.	.	.
*clefF4	*	*	*	*	*	*	*
8C/J	8ryy	8b-/J 8gg#X	16ee\LL	.	.	.	.
.	.	.	16dd\JJ	.	.	.	.
*v	*v	*	*	*	*	*	*
=41	=41	=41	=41	=41	=41	=41
16F\	16a/ 16aa	16cc\	.	2r	.	.
16r	16r	16ryy	.	.	.	.
!	!LO:TUP:a:problem:klamra łukowa	!	!	!	!	!
(<8BB-\ 8F	(<(24d/LL 24f	8ryy	.	.	.	.
.	24g/	.	.	.	.	.
.	(>24f/JJ	.	.	.	.	.
16FF/) 16F	16c/)) 16a	4ryy	.	.	.	.
16r	16r	.	.	.	.	.
*clefG2	*	*	*	*	*	*
!	!LO:TUP:a:problem:klamra łukowa	!	!	!	!	!
(8B-/ 8f	24dd\LL 24ff	.	.	.	.	.
.	24gg\	.	.	.	.	.
.	(24ff\JJ	.	.	.	.	.
*	*v	*v	*	*	*	*
=42	=42	=42	=42	=42	=42
16F/) 16f	16cc\) 16aa	.	2r	.	.
16r	16r	.	.	.	.
8r	8r	.	.	.	.
8B-::/ 8f:: 8dd-X::	8ff::\ 8bb-:: 8fff::	.	.	.	.
8r	8r	.	.	.	.
=43	=43	=43	=43	=43	=43
8F;::/ 8c:: 8cc::	8aa;::\ 8ccc:: 8aaa::	.	2r;	.	.
8r	8r	.	.	.	.
4r	4r	.	.	.	.
==	==	==	==	==	==
*-	*-	*-	*-	*-	*-
!!!system-decoration: s1{(s2,s3)}
!!!RDF**kern: N = linked
!!!RDF**kern: > = above
!!!RDF**kern: < = below
!!!ENC: Andrzej Gręziak
!!!END: 2022-08-06
!!!ENC: Natalia Wrzos
!!!END: 2022-08-29!!!YEC: Copyright 2022 Narodowy Instytut Fryderyka Chopina (https://polishscores.org)
!!!YEM: License CC-BY-4.0 (https://creativecommons.org/licenses/by/4.0)
